X:627
T:The curlew
R:Jig
S:Richard Darsie's web page
Z:Transcription, chords:Mike Long
M:6/8
L:1/8
K:D
"D"d3 A2d|"G"BAA dBA|"D"d3 A2d|"A"BAA aef|\
"D"d3 A2d|"G"BAA dBA|g2f efd|"A"cAA aef:|
|:"D"d3 f2d|"A"aef dBA|"D"d3 f2d|"A"a3 fef|\
"D"d3 f2d|"A"aef dBA|"G"g2f efd|"A"cAA aef:|
|:"G"d3 GBA|"G"dBd "A"ecA|"G"d3 GBB|"A"Ace aef|\
"G"d3 GBA|"G"dBd "A"ecA|"G"g2f efd|"A"cAA aef:|
